X: 10904
Q: "Strathspey."
M: C
L: 1/16
K: D
f2 |\
defg af3 bg3a3f | defg af3 ge3e3f |\
defg a3f bg3af3 |
defg af3 bg3a3f | defg a3f g2e2e3g |\
f3de2f2 d3BA2F2 | A2B2d2e2 f2d2d2 |]



